icons/google-pay-icon.svg

<?xml version="1.0" encoding="UTF-8"?>
<svg width="256px" height="218px" viewBox="0 0 256 218" version="1.1" xmlns="http://www.w3.org/2000/svg" xmlns:xlink="http://www.w3.org/1999/xlink" preserveAspectRatio="xMidYMid">
    <g>
				<path d="M232.503966,42.1689673 C207.253909,27.593266 174.966113,36.2544206 160.374443,61.5045895 L123.592187,125.222113 C112.948983,143.621675 126.650534,150.051007 141.928772,159.211427 L177.322148,179.639204 C189.30756,186.552676 204.616725,182.448452 211.530197,170.478784 L249.342585,104.997327 C262.045492,82.993425 254.507868,54.8722676 232.503966,42.1689673 Z" fill="#EA4335"></path>
				<path d="M190.884248,68.541767 L155.490872,48.1141593 C135.952653,37.2682465 124.888287,36.5503588 116.866523,49.3002175 L64.6660169,139.704135 C50.0900907,164.938447 58.7669334,197.211061 84.0012455,211.755499 C106.005147,224.458406 134.126867,216.920782 146.829774,194.91688 L200.029486,102.764998 C206.973884,90.7801476 202.869661,75.4552386 190.884248,68.541767 Z" fill="#FBBC04"></path>
				<path d="M197.696506,22.068674 L172.836685,7.71148235 C145.33968,-8.15950938 110.180221,1.25070674 94.3093189,28.7478917 L46.9771448,110.724347 C39.9857947,122.818845 44.1369141,138.299511 56.2315252,145.275398 L84.0720952,161.34929 C97.8203166,169.292894 115.392174,164.5797 123.335778,150.830917 L177.409304,57.1816314 C188.614245,37.7835939 213.411651,31.1355838 232.809294,42.3404686 L197.696506,22.068674 Z" fill="#34A853"></path>
				<path d="M101.033296,52.202526 L74.1604429,36.7216914 C62.1750303,29.8240204 46.8660906,33.9126683 39.9527877,45.8666484 L7.71149357,101.579108 C-8.15952065,128.997954 1.25071234,164.079816 28.7479029,179.904047 L49.2069432,191.685907 L74.0198681,205.980684 L84.7879024,212.176099 C65.670846,199.37985 59.6002612,173.739558 71.2887797,153.545698 L79.6378018,139.126091 L110.20946,86.3008703 C117.107187,74.3784352 113.002964,59.1001971 101.033296,52.202526 Z" fill="#4285F4"></path>
    </g>
</svg>

<svg xmlns="http://www.w3.org/2000/svg" viewBox="0 0 255.513 217.926">
  <path fill="#ea4335" d="M232.504 42.169c-25.25-14.576-57.538-5.915-72.13 19.336l-36.782 63.717c-10.643 18.4 3.059 24.829 18.337 33.99l35.393 20.427c11.986 6.914 27.295 2.81 34.208-9.16l37.813-65.482c12.702-22.004 5.165-50.125-16.839-62.828z"/>
  <path fill="#fbbc04" d="m190.884 68.542-35.393-20.428c-19.538-10.846-30.603-11.564-38.624 1.186l-52.201 90.404c-14.576 25.234-5.9 57.507 19.335 72.051 22.004 12.703 50.126 5.166 62.829-16.838l53.2-92.152c6.944-11.985 2.84-27.31-9.146-34.223z"/>
  <path fill="#34a853" d="M197.697 22.069 172.837 7.71c-27.497-15.87-62.657-6.46-78.528 21.037l-47.332 81.976c-6.991 12.095-2.84 27.576 9.255 34.551l27.84 16.074c13.748 7.944 31.32 3.23 39.264-10.518l54.073-93.65c11.205-19.397 36.003-26.045 55.4-14.84z"/>
  <path fill="#4285f4" d="M101.033 52.203 74.16 36.722c-11.985-6.898-27.294-2.81-34.207 9.145L7.71 101.579c-15.87 27.419-6.46 62.5 21.037 78.325l20.459 11.782L74.02 205.98l10.768 6.195c-19.117-12.796-25.188-38.436-13.5-58.63l8.35-14.42 30.571-52.825c6.898-11.923 2.794-27.2-9.176-34.098z"/>
</svg>
